apps/site/public/icons/technologies/hapi.svg

<svg xmlns="http://www.w3.org/2000/svg" fill="none" viewBox="0 0 159 153" height="153" width="159">
    <path fill="#9B99A6" d="M33.0051 6.43262C34.2939 5.41558 35.9709 4.61195 37.6505 4.88861C39.317 5.29174 41.0759 5.93991 42.0821 7.41277C43.8356 9.8816 43.5504 13.3859 41.7414 15.7467L41.604 15.6097C41.1973 15.2039 40.8012 14.7718 40.31 14.4662C39.7686 14.1105 38.905 14.4135 38.7571 15.0564C38.5643 15.9997 39.0186 16.9008 39.4728 17.6991C37.875 18.0258 36.1373 18.2445 34.595 17.5779C32.2841 16.6294 30.4989 14.3687 30.3008 11.863C30.4275 9.79465 31.5605 7.8765 33.0051 6.43262Z"></path>
    <path fill="#9B99A6" d="M57.234 34.6541C58.5518 34.4275 59.7878 33.8241 61.1373 33.7688C64.1295 33.666 67.1851 33.8505 70.032 34.8491C70.8639 35.1494 71.6853 35.6052 72.1765 36.372C70.9458 36.5907 69.7996 37.0913 68.6402 37.5287C64.0635 39.3203 59.5659 41.3228 55.248 43.6678C53.3465 44.7086 51.4424 45.7809 49.8023 47.209C48.6271 48.2498 47.2406 49.0613 46.245 50.2917C45.9043 47.0983 46.5487 43.7179 48.4977 41.1094C49.3455 39.7287 50.724 38.8382 51.8332 37.6947C53.3676 36.285 55.2691 35.3207 57.234 34.6541Z"></path>
    <path fill="#9B99A6" d="M141.953 52.9741C143.137 51.8648 144.829 51.3906 146.427 51.5961C148.384 51.8964 150.093 53.2929 150.874 55.0951C151.91 57.5165 151.257 60.6072 149.11 62.217C147.161 63.7242 144.185 63.6715 142.336 62.0221C143.271 61.1526 144.328 59.9537 144.016 58.5863C143.084 57.3874 141.23 57.5587 140.031 58.249C139.746 56.3177 140.419 54.2283 141.953 52.9741Z"></path>
    <path fill="#9B99A6" d="M123.529 57.5325C127.203 57.1742 130.39 59.4743 133.105 61.6481C134.458 62.9787 135.406 64.7282 135.767 66.5884C136.214 69.1863 136.074 71.8791 135.163 74.3664C134.407 76.8352 133.145 79.5122 130.684 80.653C130.655 79.2223 130.33 77.8232 130.087 76.4189C129.046 70.8858 127.43 65.4449 125.066 60.328C124.641 59.3505 124.163 58.3941 123.529 57.5325Z"></path>
    <path fill="#9B99A6" d="M30.802 99.9135C32.751 99.1916 34.8796 99.874 36.5566 100.946C40.2381 103.086 43.7241 105.705 46.3122 109.12C48.0474 111.42 49.5844 113.883 50.8151 116.489C51.6866 118.394 52.3732 120.434 52.4181 122.544C52.4736 124.573 51.2191 126.359 49.7877 127.682C48.1556 129.01 46.5552 130.409 44.6986 131.421C42.3112 132.672 39.5039 133.291 36.826 132.791C33.5406 132.243 30.4639 130.67 27.9735 128.483C28.8688 127.911 29.8697 127.115 29.8697 125.951C30.0519 123.772 27.9075 121.877 25.7842 122.038C24.976 122.394 24.4637 123.174 23.8827 123.803C22.5464 121.714 21.4953 119.261 21.7382 116.737C22.4143 112.255 23.8906 107.813 26.5764 104.116C26.859 103.779 26.8881 103.334 26.9277 102.917C28.2878 102 29.2068 100.483 30.802 99.9135Z"></path>
    <path fill="#9B99A6" d="M5.02033 132.907C6.30383 130.143 9.23529 128.264 12.2803 128.248C14.2716 128.42 16.1493 129.186 17.9267 130.053C19.1653 130.691 20.0051 131.9 20.4224 133.202C21.4708 136.1 20.8819 139.467 18.9778 141.881C17.792 143.312 16.3474 144.655 14.4829 145.098C11.7125 145.915 8.65956 144.914 6.6498 142.916C4.25446 140.268 3.3803 136.163 5.02033 132.907Z"></path>
    <path fill="#F79727" d="M38.7564 15.0564C38.9043 14.4135 39.7679 14.1105 40.3093 14.4662C40.8005 14.7719 41.1967 15.204 41.6034 15.6097C42.3429 16.5135 43.2012 17.3039 43.9987 18.155C47.2445 21.7146 50.1653 25.5509 53.2447 29.2502C54.6576 30.9681 56.0573 32.6966 57.4385 34.4408L57.2325 34.6542C55.2677 35.3209 53.3662 36.2852 51.8318 37.6948C51.1715 37.0177 50.7226 36.1877 50.2208 35.3973C47.4927 31.0524 44.8438 26.6549 42.3798 22.1546C41.511 20.6054 40.3648 19.2326 39.4721 17.6992C39.0179 16.9008 38.5637 15.9997 38.7564 15.0564Z"></path>
    <path fill="#F79727" d="M140.028 58.2492C141.227 57.5589 143.081 57.3876 144.013 58.5865C144.325 59.9539 143.269 61.1528 142.334 62.0223C140.287 63.727 138.135 65.3527 135.766 66.5884C135.404 64.7282 134.456 62.9787 133.104 61.6481C135.266 60.2332 137.81 59.5666 140.028 58.2492Z"></path>
    <path fill="#F79727" d="M23.8792 123.803C24.4602 123.174 24.9725 122.394 25.7807 122.038C27.904 121.877 30.0484 123.772 29.8662 125.951C29.8662 127.115 28.8653 127.911 27.97 128.483C26.7235 129.247 25.4373 129.943 24.2172 130.749C22.9469 131.56 21.777 132.527 20.4195 133.202C20.0023 131.9 19.1624 130.691 17.9238 130.053C19.4661 127.584 21.9935 125.977 23.8792 123.803Z"></path>
    <path fill="#787880" d="M78.321 35.2207C81.6063 34.6964 84.9419 34.836 88.2562 34.8887C97.9881 35.5501 107.696 39.2836 114.737 46.1315C115.727 46.8113 116.332 47.8705 117.206 48.6715C119.694 51.3353 121.593 54.4681 123.529 57.5324C124.163 58.394 124.641 59.3504 125.066 60.3279C127.429 65.4448 129.046 70.8857 130.086 76.4188C130.329 77.8232 130.654 79.2223 130.683 80.653C130.564 83.1192 131.114 85.5854 130.773 88.0463C130.607 89.3795 130.757 90.7338 130.511 92.0565C130.131 94.5411 129.038 96.8308 127.934 99.0625C127.406 100.174 126.244 100.73 125.272 101.389C124.281 102.032 122.969 102.619 121.817 102.029C119.998 100.996 119.121 98.9307 118.706 96.9757C118.25 95.1629 118.408 93.287 118.382 91.4399C118.094 86.281 117.806 81.0824 116.66 76.0262C115.891 72.7116 114.576 69.3707 112.012 67.0257C110.387 65.6582 108.528 64.5542 106.532 63.827C103.545 62.9417 100.431 62.4279 97.3094 62.4938C93.5408 62.4095 89.8276 63.1973 86.2016 64.1432C82.5333 65.0943 79.0684 66.6542 75.6457 68.2535C72.9282 69.4023 70.3585 70.8488 67.7466 72.211C66.2835 72.9988 64.8363 73.8261 63.5185 74.8405C61.1337 76.6559 58.5693 78.3027 56.615 80.6082C54.6555 82.9137 52.9151 85.5485 52.3208 88.5601C51.5735 92.9919 52.4238 97.5501 54.0058 101.713C55.8148 106.308 58.5165 110.537 61.8626 114.171C64.1761 117.064 67.2554 119.182 70.2423 121.321C71.8771 122.391 72.9493 124.283 72.9625 126.241C72.8093 127.874 71.5602 129.155 70.2714 130.048C68.8822 130.904 67.2581 131.46 65.6128 131.41C61.7596 131.376 57.8748 130.918 54.2171 129.674C52.6747 129.157 51.2565 128.359 49.7855 127.682C51.2169 126.359 52.4714 124.573 52.4159 122.544C52.371 120.434 51.6844 118.394 50.8129 116.489C49.5822 113.883 48.0452 111.42 46.3101 109.12C43.7219 105.705 40.2359 103.086 36.5544 100.946C34.8774 99.874 32.7488 99.1916 30.7998 99.9135C29.2046 100.483 28.2856 102 26.9255 102.917C26.5267 101.761 26.7142 100.514 26.5531 99.3207C26.3524 97.9269 26.4633 96.5172 26.3286 95.1208C26.1147 93.1947 26.2177 91.2529 26.1834 89.3189C26.1279 85.5379 26.1992 81.7359 26.7829 77.9918C27.348 74.5165 28.7794 71.2546 30.401 68.1534C32.1598 64.8704 34.4047 61.8561 36.94 59.1265C38.3265 57.535 39.8054 56.0147 41.4533 54.6921C42.9349 53.098 44.8575 51.9729 46.244 50.2919C47.2397 49.0614 48.6262 48.2499 49.8014 47.2092C51.4414 45.7811 53.3455 44.7087 55.247 43.668C59.565 41.323 64.0625 39.3205 68.6393 37.5288C69.7987 37.0914 70.9448 36.5908 72.1755 36.3721C74.2645 36.2167 76.2346 35.4051 78.321 35.2207Z"></path>
  </svg>

<svg xmlns="http://www.w3.org/2000/svg" width="159" height="153" fill="none" viewBox="0 0 159 153"><path fill="#9b99a6" d="M33.005 6.433c1.289-1.017 2.966-1.821 4.645-1.544 1.667.403 3.426 1.05 4.432 2.524 1.754 2.469 1.468 5.973-.34 8.334l-.138-.137c-.407-.406-.803-.838-1.294-1.144-.541-.355-1.405-.052-1.553.59-.193.944.262 1.845.716 2.643-1.598.327-3.336.545-4.878-.121-2.31-.949-4.096-3.21-4.294-5.715.127-2.068 1.26-3.986 2.704-5.43m24.229 28.221c1.318-.227 2.554-.83 3.903-.885 2.992-.103 6.048.081 8.895 1.08.832.3 1.653.756 2.145 1.523-1.231.219-2.377.72-3.537 1.157-4.576 1.791-9.074 3.794-13.392 6.139-1.901 1.04-3.806 2.113-5.446 3.541-1.175 1.04-2.561 1.852-3.557 3.083-.34-3.194.304-6.574 2.253-9.183.848-1.38 2.226-2.27 3.335-3.414 1.535-1.41 3.436-2.374 5.401-3.04m84.719 18.319c1.184-1.11 2.876-1.583 4.474-1.378 1.957.3 3.666 1.697 4.447 3.5 1.036 2.42.383 5.511-1.764 7.121-1.949 1.507-4.925 1.455-6.774-.195.935-.87 1.992-2.068 1.68-3.436-.932-1.199-2.786-1.027-3.985-.337-.285-1.931.388-4.02 1.922-5.275m-18.424 4.559c3.674-.359 6.861 1.941 9.576 4.115a9.55 9.55 0 0 1 2.662 4.94c.447 2.598.307 5.291-.604 7.778-.756 2.47-2.018 5.146-4.479 6.287-.029-1.43-.354-2.83-.597-4.234-1.041-5.533-2.657-10.974-5.021-16.091-.425-.978-.903-1.934-1.537-2.796M30.802 99.914c1.949-.722 4.078-.04 5.755 1.032 3.681 2.14 7.167 4.759 9.755 8.174 1.735 2.3 3.272 4.763 4.503 7.369.872 1.905 1.558 3.945 1.603 6.055.056 2.029-1.199 3.815-2.63 5.138-1.632 1.328-3.233 2.727-5.09 3.739-2.387 1.251-5.194 1.87-7.872 1.37-3.285-.548-6.362-2.121-8.852-4.308.895-.572 1.896-1.368 1.896-2.532.182-2.179-1.963-4.074-4.086-3.913-.808.356-1.32 1.136-1.901 1.765-1.337-2.089-2.388-4.542-2.145-7.066.676-4.482 2.153-8.924 4.838-12.621.283-.337.312-.782.352-1.199 1.36-.917 2.279-2.434 3.874-3.004M5.02 132.907c1.284-2.764 4.215-4.643 7.26-4.659 1.992.172 3.87.938 5.647 1.805 1.238.638 2.078 1.847 2.495 3.149 1.049 2.898.46 6.265-1.444 8.679-1.186 1.431-2.63 2.774-4.495 3.217-2.77.817-5.823-.184-7.833-2.182-2.396-2.648-3.27-6.753-1.63-10.009"/><path fill="#f79727" d="M38.756 15.056c.148-.642 1.012-.945 1.553-.59.492.306.888.738 1.294 1.144.74.904 1.598 1.694 2.396 2.545 3.246 3.56 6.166 7.396 9.246 11.095a360 360 0 0 1 4.194 5.19l-.206.214c-1.965.667-3.867 1.631-5.401 3.04-.66-.676-1.11-1.506-1.611-2.297-2.728-4.345-5.377-8.742-7.841-13.242-.869-1.55-2.015-2.922-2.908-4.456-.454-.798-.908-1.7-.716-2.643M140.028 58.25c1.199-.691 3.053-.862 3.985.337.312 1.367-.744 2.566-1.679 3.435-2.047 1.705-4.199 3.33-6.568 4.566a9.56 9.56 0 0 0-2.662-4.94c2.162-1.415 4.706-2.081 6.924-3.399M23.88 123.803c.58-.629 1.093-1.409 1.9-1.765 2.124-.161 4.268 1.734 4.086 3.913 0 1.164-1 1.96-1.896 2.532-1.246.764-2.533 1.46-3.753 2.266-1.27.811-2.44 1.778-3.797 2.453-.418-1.302-1.258-2.511-2.496-3.149 1.542-2.469 4.07-4.076 5.955-6.25"/><path fill="#787880" d="M78.321 35.22c3.285-.524 6.62-.384 9.935-.331 9.732.661 19.44 4.395 26.481 11.243.99.68 1.595 1.739 2.469 2.54 2.488 2.663 4.387 5.796 6.323 8.86.634.862 1.112 1.818 1.537 2.796 2.363 5.117 3.98 10.558 5.02 16.09.243 1.405.568 2.804.597 4.235-.119 2.466.431 4.932.09 7.393-.166 1.333-.016 2.688-.262 4.01-.38 2.485-1.473 4.775-2.577 7.007-.528 1.111-1.69 1.667-2.662 2.326-.991.643-2.303 1.23-3.455.64-1.819-1.033-2.696-3.098-3.111-5.053-.456-1.813-.298-3.689-.324-5.536-.288-5.159-.576-10.358-1.722-15.414-.769-3.314-2.084-6.655-4.648-9-1.625-1.368-3.484-2.472-5.48-3.199-2.987-.885-6.101-1.4-9.223-1.333-3.768-.084-7.481.703-11.107 1.65-3.669.95-7.134 2.51-10.556 4.11-2.718 1.148-5.287 2.595-7.9 3.957-1.462.788-2.91 1.615-4.227 2.63-2.385 1.815-4.95 3.462-6.904 5.767-1.96 2.306-3.7 4.94-4.294 7.952-.747 4.432.103 8.99 1.685 13.153 1.809 4.595 4.51 8.824 7.857 12.458 2.313 2.893 5.392 5.011 8.38 7.15 1.634 1.07 2.706 2.962 2.72 4.92-.154 1.633-1.403 2.914-2.692 3.807-1.389.856-3.013 1.412-4.658 1.362-3.853-.034-7.738-.492-11.396-1.736-1.542-.517-2.96-1.315-4.431-1.992 1.43-1.323 2.685-3.109 2.63-5.138-.045-2.11-.732-4.15-1.603-6.055-1.23-2.606-2.768-5.069-4.503-7.369-2.588-3.415-6.074-6.034-9.756-8.174-1.677-1.072-3.805-1.754-5.754-1.032-1.595.569-2.514 2.086-3.875 3.003-.398-1.156-.21-2.403-.372-3.596-.2-1.394-.09-2.804-.224-4.2-.214-1.926-.111-3.868-.146-5.802-.055-3.781.016-7.583.6-11.327.565-3.476 1.996-6.737 3.618-9.839 1.759-3.283 4.004-6.297 6.539-9.027 1.387-1.591 2.865-3.111 4.513-4.434 1.482-1.594 3.404-2.72 4.791-4.4.996-1.23 2.382-2.042 3.557-3.083 1.64-1.428 3.544-2.5 5.446-3.541 4.318-2.345 8.816-4.347 13.392-6.14 1.16-.437 2.306-.937 3.537-1.156 2.088-.155 4.059-.967 6.145-1.151"/></svg>
